images/arrow_right.svg

<svg width="67" height="67" viewBox="0 0 67 67" fill="none" xmlns="http://www.w3.org/2000/svg">
<circle cx="33.7379" cy="33.2193" r="31.8217" transform="rotate(-180 33.7379 33.2193)" stroke="black" stroke-width="2"/>
<path d="M57.2185 34.8205C58.3901 33.649 58.3901 31.7495 57.2185 30.5779L38.1266 11.486C36.9551 10.3144 35.0556 10.3144 33.884 11.486C32.7124 12.6576 32.7124 14.5571 33.884 15.7287L50.8546 32.6992L33.884 49.6698C32.7124 50.8414 32.7124 52.7409 33.884 53.9124C35.0556 55.084 36.9551 55.084 38.1266 53.9124L57.2185 34.8205ZM11.335 35.6992L55.0972 35.6992L55.0972 29.6992L11.335 29.6992L11.335 35.6992Z" fill="#3C3C3C"/>
</svg>

<svg width="67" height="67" fill="none" xmlns="http://www.w3.org/2000/svg"><circle cx="33.738" cy="33.219" r="31.822" transform="rotate(-180 33.738 33.22)" stroke="#000" stroke-width="2"/><path d="M57.218 34.82a3 3 0 000-4.242L38.127 11.486a3 3 0 10-4.243 4.243l16.97 16.97-16.97 16.97a3 3 0 104.243 4.243l19.091-19.091zm-45.883.88h43.762v-6H11.335v6z" fill="#3C3C3C"/></svg>
